X:1
T:Title
%%score { ( 1 3 ) | ( 2 4 ) }
L:1/8
M:4/4
K:G
V:1 treble nm="Grand Piano"
V:3 treble 
V:2 bass 
V:4 bass 
V:1
 z4 z2[Q:1/4=100] D2 | B2 B2 A2 G2 | B3 D D2 B2 | d6 z2 | d6 z2 | B2 B2 A2 G2 | F3 G A2 d2 | %7
 ^c6 z2 | d6 z2 | e3 d c2 B2 | A2 ^G2 A2 D2 | [Fd]2 [Fd]2 [=Fd]2 [Fd]2 |[M:3/4] [Fd]6 |[M:1/4] D2 | %14
[M:4/4] d8- | d6 z2 | d8- |[M:3/4] d6 |[M:1/4] D2 |[M:4/4] d8- | d6 z2 | [A^c]2 c2 [Fc]2 [Gc]2 | %22
[M:9/8] [Ac]8- [Ac] |[M:1/4] D2 |[M:4/4] d8- | d6 z2 | d8- |[M:3/4] d6 |[M:1/4] G2 | %29
[M:4/4] [Ge]2 e2 e2 ^d2 | [Bd]2 d2 ^c2 d2 | [ce]4 d4 |[M:3/4] B6 |] %33
V:2
 z4 z2 [G,B,]2 | [G,B,D]2 [G,B,D]2 [G,C^D]2 [G,CD]2 | [G,B,D]3 [G,B,] [G,B,]2 z2 | %3
 z2 [D,B,]2 [D,C]2 z2 | z2 [G,^C]2 [G,D]2 [G,B,]2 | [G,B,D]2 [G,B,D]2 [E,B,E]2 [E,B,E]2 | %6
 [A,D]3 [A,E] [A,DF]2 z2 | z2 [A,E]2 [A,E]2 z2 | z2[K:bass] [D,D]2 [D,D]2 D2 | E3 D C2 B,2 | %10
 A,2 ^G,2 A,2 D,2 | [D,A,]2 [D,A,]2 [D,B,]2 [D,B,]2 |[M:3/4] [D,C]6 |[M:1/4] z2 | %14
[M:4/4] G,,2 D,2 [G,B,]2 D,2 | A,,2 z F F,2 D,2 | D,,2 D,2 [F,C]2 D,2 | %17
[M:3/4] G,,2 z[K:treble] G G,2 |[M:1/4][K:bass] D,2 |[M:4/4] G,,2 D,2 [G,B,]2 D,2 | z2 A,2 z4 | %21
 z2[K:treble] G2 A,4 |[M:9/8][K:bass] [D,F,A,]8- [D,F,A,] |[M:1/4] z2 | %24
[M:4/4] G,,2 D,2 [G,B,]2 D,2 | A,,2 z F F,2 D,2 | D,,2 D,2 [F,C]2 D,2 | %27
[M:3/4] G,,2 z[K:treble] G G,2 |[M:1/4][K:bass] G,2 |[M:4/4] z2[K:treble] G2 G2 A2 | %30
 [G,B,D]2 B2 _B2 =B2 | z4 F4 |[M:3/4] [G,DG]6 |] %33
V:3
 x8 | x8 | x8 | z2 ^G2 A2 e2 | z2 _B2 =B2 D2 | x8 | x8 | z2 G2 G2 e2 | z2 F2 F2 d2 | x8 | x8 | x8 | %12
[M:3/4] x6 |[M:1/4] x2 |[M:4/4] z2 B2 A2 G2 | G4 [CA]2 D2 | z2 c2 B2 A2 |[M:3/4] A4 [B,B]2 | %18
[M:1/4] x2 |[M:4/4] z2 B2 A2 G2 | F4 [DA]2 [Fd]2 | x8 |[M:9/8] x9 |[M:1/4] x2 | %24
[M:4/4] z2 B2 A2 G2 | G4 [CA]2 D2 | z2 c2 B2 A2 |[M:3/4] A4 [B,B]2 |[M:1/4] x2 |[M:4/4] x8 | x8 | %31
 x8 |[M:3/4] x6 |] %33
V:4
 x8 | x8 | x8 | x8 | x8 | x8 | x8 | x8 | x2[K:bass] x6 | x8 | x8 | x8 |[M:3/4] x6 |[M:1/4] x2 | %14
[M:4/4] x8 | z2 D,2 z4 | x8 |[M:3/4] z2 D,2[K:treble] z2 |[M:1/4][K:bass] x2 |[M:4/4] x8 | %20
 A,,2 z G F,2 A,2 | A,,8[K:treble] |[M:9/8][K:bass] x9 |[M:1/4] x2 |[M:4/4] x8 | z2 D,2 z4 | x8 | %27
[M:3/4] z2 D,2[K:treble] z2 |[M:1/4][K:bass] x2 |[M:4/4] [C,C]8[K:treble] | x8 | [D,D]8 | %32
[M:3/4] x6 |] %33

